X:2254
T:Vals efter Niklas Larsson
R:Vals
O:Svarteborg, Bohuslän
S:[[Personer/Niklas Larsson]], från fonografinspelning av Yngwe Laurell 1916
B:Julia Klingvall, 2011-12-26
Z:Julia Klingvall, http://julia.klingvall.se/
M: 3/4
L: 1/8
K: A
Q:1/4=200
A |: A>c c>B {c}B>A | c>d e>a e>d | c>B B>A c>A | [E4A,4] A2|
A>c c>B {c}B>A | c>d e>a e>d |c>B B2 {cB}A2 |A4 A2 ::
c2 A2 (3cAc | e4 c<A |{c}e>f e>f ec | c2 [d2f2] [d2f2]|
{f}(3fgf e>d (3cAc | e4 c<A | c<A c<e d<B | {G}B2 A2 A2 :|
(:musicend:)
(:music:)
